X:18722
T:White Cockade,The. GS.025
M:2/2
L:1/8
Q:200
S:George Spencer m/s, Leeds,1831
R:Scots Measure
O:England
A:Leeds
H:1831
Z:vmp.Cherri Graebe
K:G major
GA | B2B2 cBAG | B2d2d2g2 | d2B2 cBAG | F2 A2A2 GA | B2B2 cBAG |! B2d2g3
a | 
bagf efge | d2 B2B2 :||: Bc | d2B2g2B2 | d2d2d2 Bc |! d2B2g2 fg | a2A2A2
GA | B2B2 cBAG |
B2d2g3a | bagf efge | d2 B2B2 :||
